X:1105
T:Sleepy Maggie
P:Sleepy Maggie
C:Bremner 1756, here from Gow's Repository
R:Reel (8x32)
B:RSCDS 11-5
Z:Anselm Lingnau <anselm@strathspey.org>
M:C|
L:1/8
K:Bm
g|"Bm"f2Bb fBde|f2Ba "A"eAce|"Bm"f2Bb fBde|"(D)"f^gaf "A"eAce|
  "Bm"f2Bb fBde|f2Ba "A"eAce|"Bm"f2Bb fBde|"(D)"f^gaf "A"eAce||
  "Bm"fBdB fBde|fBdB "A"eAce|"Bm"fBdB fBde|"(D)"f^gaf "A"eAce|
  "Bm"fBdB fBde|fBdB "A"eAce|"Bm"fBbB aB^gB|"(D)"f^gaf "A"eAce|]

